X:1
T:Soldatenlieder - Marsch
T:Soldatenlieder - Marsch
T:Wilhelm Leubner
C:Wilhelm Leubner
%%score { 1 | 2 }
L:1/8
Q:1/4=120
M:2/4
K:C
V:1 treble nm="Piano" snm="Pno."
V:2 bass 
V:1
!f! cG/G/ ec | Gc/e/ g2 | eg ce | GG/G/ ec | cG/G/ ec | Gc/e/ g2 | eg ce | GG/G/ c(3c/d/e/ | %8
[K:F]!ff! [Acf] z [Acf] z | [Acf] z!mf! FG |: [FA] z [FA][Ac] | [GB] z [GB][Bd] | [Ac] z [Ac][GB] | %13
 [FA]3 z | [Ac] z [Ac][GB] | [FA]2 [FA][Ac] | [GB] z [GB]F | [EG] z [Ec] z | [FA]4- |1 %19
 [FA] z FG :|2 z z FA || [EG]3 [FA] | [GB] z [EG] z | [FA]3 [GB] | [Ac]2 [Ac][Ac] | %25
!<(! [Bd] z [Bd] z!<)! |!f! [Fdf]2 [Ece][DBd] |!>(! [CAc]4-!>)! |!mf! [CAc] z FA | %29
 [Ac] z [Ac][Bd] | [Ac] z [Ac][Af] | [Ac]2 [Ac][GB] | [FA]3 z |!p! [Ac]2 [Ac][GB] | %34
 [FA] z [FA][Ac] | [GB]2 [GB]F | [EG] z [Ec] z | [FA]4 | !>![_EFc]4 |[K:Bb]!f! [DFB]3 F | %40
 [DB]2 [Fd]2 | [EFc]2 [EFc]2 | [DFB]2 [DF]2 | [DB] z2 F | [DB]2 [Fd]2 | [Bdf]4- | [Bdf]2 z2 | %47
 !>![Beg]2 !>![Beg]2 | !>![Beg]2 !>![Beg]2 | !>![Bdf]2 !>![Bdf]2 | !>![FBd]2 !>![FB]2 | %51
!p! [Af]>[Af] [Af][Af] | [Ge]2 [Ac]2 |!<(! B2 [Bd]2!<)! |!mf!!<(! [Bdf]2 [Bdfb]2!<)! | %55
!f! !>![Beg]2 !>![Beg]2 | !>![Beg]2 !>![Beg]2 | !>![Bdf]2 !>![Bdf]2 | !>![Bd]2 !>!B2 | %59
!p! [Af]>[Af] [Af][Af] | [Ge]2 [Ac]2 | B z [EFA]2 |!<(! [DFB] z z2!<)! |!ff! d>d (3dAd | %64
 =e>e (3eAe | [Aa] z !>!d>!>!d | !>!d z!p! D2 ||[K:G] [B,DG]2 [DGB][DGB] | [DGB]2 [CDA]2 | %69
 [B,DG]4 | [B,D]2 [B,G][DA] | [GB]2 [DGd]2 | [DBd]2 [DAc]2 | [DGB]4- | [DGB]2 [DGB]2 | [DFA]3 B | %76
 [^CGA]3 B | [DFA]d [DFd]2- | [DFd]2 [DGB]2 | [DFA]3 B | [^CGA]3 B | [DFA]d [DFd]2- | [DFd]2 z2 | %83
!f! !>![DBd]3 [Ac] | [DGB]4 | !>![DB]3 [CDA] | [B,DG]4 | [CDA]3 B | [CDA]2 [CDG]2 | [CF]2 [CE]2 | %90
 [CD]2 D2 | [DGB]2 [CDA]2 | [B,DG]2 D2 | [DB]2 [CDA]2 | [B,DG] z!p! [dbd']2 | [dbd']4 | %96
 [dgb]2 [dbd']2 | [dbd']4 | [dgb]2 [dbd']2 | [cac']>[Bgb] [cac']>[Bgb] | [Afa]2 [dd']2 | [dbd']4- | %102
 [dbd']2!mf! d>d | [Bdg]4 | [Gdf]2 [Gce][Gce] | [GBd]4 | [GB]2 [Bd]2 | [Bd]2 [Be]2 | [Ac]2 [Fd]2 | %109
 [GB]4- | [GB]2!f! [Acd]>d | [Bdg]4 | [Gdf]2 [Gce][Gce] | [GBd]4 | [GB]2 [Bd]2 | [Bd]2 [Be]2 | %116
 [Ac]2 [Fd]2 | [B,DG][B,DG]/[B,DG]/ [B,DG][B,DG] | [B,DG]2 z2 |] %119
V:2
 [CE] z [CE] z | [CE] z [CE] z | [CE] z [CE] z | [G,B,F] z [CE] z | [CE] z [CE] z | [CE] z [CE] z | %6
 [CE] z [CE] z | [G,B,F] z [CE] z |[K:F] [F,A,C] z [F,,F,] z | [F,,F,] z z2 |: [F,A,C] z [C,C] z | %11
 [E,B,C] z [C,C] z | [F,A,C] z [C,C] z | [F,A,C] z [C,C] z | [F,A,C] z [C,C] z | %15
 [F,A,C] z [C,C] z | [E,B,C] z [C,C] z | [E,B,C] z [C,C] z | [F,A,C] z C, z |1 F,,B, A,G, :|2 %20
 F,, z z2 || G,[B,C] C,[B,C] | E,[B,C] C,[B,C] | F,[A,C] C,[A,C] | F,[A,C] C,[A,C] | %25
 B,,[B,D] F,[B,D] | B,,C, D,E, | F,[A,C] C,[A,C] | F, z z2 | F,[A,C] C,[A,C] | F,[A,C] C,[A,C] | %31
 F,[A,C] C,[A,C] | F,[A,C] C,[A,C] | !>!F,[A,C] !>!E,[A,C] | !>!D,[A,C] !>!C,[A,C] | %35
 !>!E,[B,C] !>!D,[B,C] | C,[B,C] C,[B,C] | [F,A,C]F, C,A,, | %38
 !>![F,,F,]!>![_E,,_E,] !>![D,,D,]!>![C,,C,] |[K:Bb] [B,,,B,,][F,B,] D,[F,B,] | %40
 B,,[F,B,] F,,[F,B,] | A,,[F,A,] F,,[F,A,] | B,,[F,B,] D,[F,B,] | B,,[F,B,] D,[F,B,] | %44
 B,,[F,B,] D,[F,B,] | [B,,B,][D,D] [C,C][B,,B,] | [A,,A,][G,,G,] [F,,F,][D,,D,] | %47
 [E,,E,][G,B,] B,,[G,B,] | [E,,E,][G,B,] B,,[G,B,] | B,,[B,D] F,[B,D] | D,[B,D] F,[B,D] | %51
 C,[A,E] F,[A,E] | C,[A,E] F,[A,E] | B,,[B,D] F,[B,D] | D,[B,D] B,,[B,D] | %55
 [E,,E,][G,B,] B,,[G,B,] | E,[G,B,] B,,[G,B,] | B,,[B,D] F,[B,D] | D,[B,D] F,[B,D] | %59
 C,[A,E] F,[A,E] | C,[A,E] F,[A,E] | [B,D] z [F,C]2 | !>![B,,B,]!>![A,,A,] !>![B,,B,]!>![C,C] | %63
 !>![D,^F,A,D]4 | !>![D,G,A,C]4 | !>![D,^F,A,C] z !>!D>!>!D | !>!D z D,2 ||[K:G] G,2 G,,B,, | %68
 D,2 F,2 | G,2 B,,D, | G,,2 D,2 | G,,2 B,,2 | D,2 F,2 | G,2 D,B,, | G,,2 G,2 | [D,A,]2 [A,,A,]2 | %76
 [E,A,]2 [A,,A,]2 | [D,A,]2 A,>F, | D,2 A,2 | [D,A,]2 [A,,A,]2 | [E,A,]2 [A,,A,]2 | [D,A,]2 A,>F, | %82
!<(! D,=C, B,,A,,!<)! | G,,2 D,2 | [G,B,]2 D,2 | G,,2 D,2 | G,2 D,2 | D,,2 D,2 | F,2 [D,G,]2 | %89
 [D,A,]2 [D,G,]2 | [D,F,]2 D,2 | G,,2 (3D,E,F, | G,2 D,2 | G,,2 (3D,E,F, | G, z D,2 | %95
 G,,[B,D] D,[B,D] | G,[B,D] D,[B,D] | G,,[B,D] D,[B,D] | G,[B,D] D,[B,D] | F,[CD] D,[CD] | %100
 F,[CD] D,[CD] | [G,B,D]G, F,E, | D,C, B,,A,, | G,,[G,B,] B,,[G,B,] | C,[G,C] E,[G,C] | %105
 G,[B,D] D,[B,D] | G,[B,D] D,[B,D] | G,[B,D] E,[^G,D] | A,,[A,C] D,[A,C] | [G,B,]G, F,E, | %110
 D,C, B,,A,, | G,,[G,B,] B,,[G,B,] | C,[G,C] E,[G,C] | G,[B,D] D,[B,D] | G,[B,D] D,[B,D] | %115
 G,[B,D] E,[^G,D] | A,,[A,C] D,[A,C] | [G,B,]G, D,B,, | G,,2 z2 |] %119

